X: 14035
T: Franklin's
R: hornpipe
M: 4/4
K: Gmajor
A|:Beaf gedB|(3ABA GF G3 A|(3Bce af gedB|cegf d3 A|
Beaf gedB|GA (3BAG E2 (3DEF|G2 eB cAGF|G2 GF G3 A:|
Bgfg egdB|(3ABA GF G3 A|Bgfg egdc|(3BcB AG A3 B|
Bgfg (3efe dB|GA (3BAG E2 (3DEF|G2 eB cAGF|1 G2 GF G3 A:|2 G2 GF G4||

